!!!OTL: HUSSE BUSSEE DAT ERSTE JAHR TWEE
!!!ARE: Europa, Mitteleuropa, Deutschland, Norddeutschland, Holstein
!!!SCT: K0112
!!!YEM: Copyright 1995, estate of Helmut Schaffrath.
**kern
*ICvox
*Ivox
*M3/4
*k[f#]
*G:
=1
{4b
4b
4a
=2
4g
4r}
{4g
=3
4b
4b
4a
=4
4g
4r}
{4g
=5
4b
4b
4b
=6
4cc
4cc
4cc}
=7
{8a
8a
4a
4a
=8
4dd
4dd
4dd}
=9
{4b
4b
4a
=10
2g
4r}
==
!!!AGN: Kinder -, Wiegen - Lied
!!!ONB: ESAC (Essen Associative Code) Database: KINDER
!!!AMT: simple triple
!!!AIN: vox
!!!EED: Helmut Schaffrath
!!!EEV: 1.0
*-
